X:1
T:The Laird O' Drum
M:4/4
L:1/4
K:C
 C| E G AG/2-E/2| G3/2 E/2 D C| E G AG/2-E/2| G3/2- A/2 cc/2-d/2| e3/2c/2-e/2d/2-c/2 A/2|\
 GG/2-A/2 c G| A G/2E/2 G C| E- D C||
